X: 16692
T: Happy Couple, The
R: jig
M: 6/8
K: Cmajor
E3 EDE|GAG GAB|czB cGE|DED D/D/EF|
~E3 EDE|GAG E3|cBc GFE|FED C2D|
~E3 EDE|~G3 GAB|cdB cGE|DED D/D/EF|
E3 EDE|GAG E3|cBc GAG|FED C2B||
|:~c3 cAG|Add ded|B/B/cc cBc|dgg gaf|
ecc dBB|cBc GAB|c/c/Bc GAG|1 FED C2B:|2 ~F3 DEF||"End"FED C3||

